storage/app/icons/phosphoricons/duotone/calendar-check-duotone.svg

<svg xmlns="http://www.w3.org/2000/svg" fill="currentColor" viewBox="0 0 256 256"><path d="M216 48v40H40V48a8 8 0 0 1 8-8h160a8 8 0 0 1 8 8" opacity=".2"/><path d="M208 32h-24v-8a8 8 0 0 0-16 0v8H88v-8a8 8 0 0 0-16 0v8H48a16 16 0 0 0-16 16v160a16 16 0 0 0 16 16h160a16 16 0 0 0 16-16V48a16 16 0 0 0-16-16M72 48v8a8 8 0 0 0 16 0v-8h80v8a8 8 0 0 0 16 0v-8h24v32H48V48Zm136 160H48V96h160zm-38.34-85.66a8 8 0 0 1 0 11.32l-48 48a8 8 0 0 1-11.32 0l-24-24a8 8 0 0 1 11.32-11.32L116 164.69l42.34-42.35a8 8 0 0 1 11.32 0"/></svg>

<svg xmlns="http://www.w3.org/2000/svg" viewBox="0 0 256 256" fill="currentColor"><path d="M216,48V88H40V48a8,8,0,0,1,8-8H208A8,8,0,0,1,216,48Z" opacity="0.2"/><path d="M208,32H184V24a8,8,0,0,0-16,0v8H88V24a8,8,0,0,0-16,0v8H48A16,16,0,0,0,32,48V208a16,16,0,0,0,16,16H208a16,16,0,0,0,16-16V48A16,16,0,0,0,208,32ZM72,48v8a8,8,0,0,0,16,0V48h80v8a8,8,0,0,0,16,0V48h24V80H48V48ZM208,208H48V96H208V208Zm-38.34-85.66a8,8,0,0,1,0,11.32l-48,48a8,8,0,0,1-11.32,0l-24-24a8,8,0,0,1,11.32-11.32L116,164.69l42.34-42.35A8,8,0,0,1,169.66,122.34Z"/></svg>
